src/pos-icons/surround-sound-5-1.svg

<svg height="24" viewBox="0 0 24 24" width="24" xmlns="http://www.w3.org/2000/svg"><path d="m13 17a1 1 0 0 1 -1-1 1 1 0 0 1 1-1 1 1 0 0 1 1 1 1 1 0 0 1 -1 1m6-10v8h1v2h-4v-2h1v-6h-1l1-2zm-13 6a2 2 0 0 1 -2-2v-4h6v2h-4v2h2a2 2 0 0 1 2 2v2a2 2 0 0 1 -2 2h-4v-2h4v-2z"/></svg>

<?xml version="1.0" encoding="UTF-8"?><!DOCTYPE svg PUBLIC "-//W3C//DTD SVG 1.1//EN" "http://www.w3.org/Graphics/SVG/1.1/DTD/svg11.dtd"><svg xmlns="http://www.w3.org/2000/svg" xmlns:xlink="http://www.w3.org/1999/xlink" version="1.1" id="mdi-surround-sound-5-1" width="24" height="24" viewBox="0 0 24 24"><path d="M13,17A1,1 0 0,1 12,16A1,1 0 0,1 13,15A1,1 0 0,1 14,16A1,1 0 0,1 13,17M19,7V15H20V17H16V15H17V9H16L17,7H19M6,13A2,2 0 0,1 4,11V7H10V9H6V11H8A2,2 0 0,1 10,13V15A2,2 0 0,1 8,17H4V15H8V13H6Z" /></svg>
